X: 12684
T: Fathaby, The
R: jig
M: 6/8
K: Dmajor
|:f2 A ABA|~B3 ABA|~f3 fef|~g3 efg|
f2 A ABA|~B3 Afg|~a3 agf|efe d2 e:|
|:fga b2 a|fga b2 a|fga b2 a|aef gfe|
f2 f gfe|f2 f f2 g|a2 a agf|efe d2 e:|

